X:531
%%etbk:tnset id:78,pos:2,rep:3x,ant:undefined
%%etbk:skill ?
%%etbk:pldat 2013-11-21T18:38,2013-11-16T14:49,2013-11-13T16:43,2013-11-12T19:13,2013-10-15T18:58,2013-10-13T16:45,2013-10-11T18:57,2013-10-10T19:35
T: My Love In The Morning
Z: Piano Box Version by Martin Fleischmann
H: Created 2013-10-10 /  Last Modified 2013-11-12
R: jig
M: 6/8
L: 1/8
K: Dmix
G|:"am"!3!AAA AGE|!3!c2B c2!4!d|!3!eee !3!ed!1!B|"em"!5!g!1!Bg !4!ee !3!d|
"C"!2!cd!4!e !5!g2g|!4!e!2!c!1!A !2!GA!4!B| "D"!5!cBA !4!B!2!G!1!E|!3!AAA A3:|
g|:"am"!5!aAa !5!agf|"em"!4!ggg !4!gfg|"am"!5!a2a !5!agf|"em"!4!gea !4!ge!1!d|
"C"!2!cd!4!e !5!g2g|!4!e!2!c!1!A !2!GA!4!B|"D"!5!cBA !4!B!2!G!1!E|!3!AAA A3:|
